X:1
T:Alison and Willie
M:4/4
L:1/4
K:D
 D| E E B3/2 A/2| B d FE/2-D/2| E E B3/2 A/2| B d| e3/2 d/4d/4| f3/2 e/2 ed/2-c/2|\
 d3/2 F/2 FE/2-D/2| F3/2 A/2 BA/2-d/2| B3/2 F/2 E||
